X:1
T:Title
%%score { ( 1 3 ) | ( 2 4 ) }
L:1/8
M:6/8
K:C
V:1 treble nm="Grand Piano"
V:3 treble 
V:2 bass 
V:4 bass 
V:1
 z3 z2[Q:1/4=100] [EG]/[EG]/ | [Ec][EB][EA] [EG]FE | G F2- F2 F/F/ | [FB][FA][EG] [DF][B,D][B,F] | %4
 [CE]3- [CE]2 [EG]/[EG]/ | [Ec][EB][EA] [EG][EG][_EA] | B D2- D2 D/D/ | E[Ec]B BGA | %8
[M:5/8] [G,G]3- [G,FG]2 |[M:1/8] [CEG] |[M:3/4] [Ec][Ec] [EA][EG] [EG][EA] | [CE]6 | %12
 [Ec][Ec] [EA] [EG]2 [EA] | F6 | BB- B/_B/=B .B2 | [EA][EA]- [EA]/[EG]/[EA] [EA]E | %16
 D^F A[Fc] [GB][FA] |[M:7/8] G-G-G- G3 z |[M:3/4] [Ec][Ec] [EA][EG] [EG][EA] | [CE]6[K:bass] | %20
 EE[K:treble] E [EG]2 [E^G] | A6 | A^G Ac BA |[M:7/8] G^FG [Ge]3 [EG] | %24
[M:3/4] [^FA][FB] [Fc][=Fd] [Ec][FB] |[M:5/8] [Ec]-[Ec]- [Ec]3 |] %26
V:2
 z3 z2 [C,C]/[C,C]/ | [C,G,][C,G,][C,G,] [C,G,][D,F,D][E,G,C] | %2
 [G,CE] [G,B,D]2- [G,B,D]2 [G,B,D]/[G,B,D]/ | [G,,G,][G,,G,][G,,G,] [G,,G,][G,,G,][G,,G,] | %4
 [C,G,]3- [C,G,]2 [C,C]/[C,C]/ | [C,G,][C,G,][C,G,] [C,C][C,C][C,G,] | %6
 [D,G,D] [G,B,]2- [G,B,]2 [G,B,]/[G,B,]/ | [C,G,C][C,G,][D,G,D] [D,G,D][D,G,B,][D,^F,C] | %8
[M:5/8] G,,3 B,,2 |[M:1/8] C, |[M:3/4] [C,G,][C,G,] [C,G,][C,C] [C,C][C,C] | [C,G,]C, C, .C,3 | %12
 [C,G,][C,G,] [C,G,] [C,C]2 [C,C] | [G,B,D]2 [G,B,] .[G,B,]3 | %14
 [G,DF][G,DF]- [G,DF]/[G,^CF]/[G,DF] .[G,DF]2 | [C,C][C,C]- [C,C]/[C,C]/[C,C] [C,C][C,G,C] | %16
 [D,^F,C][D,A,D] [D,F,D][D,A,] [D,D][D,C] |[M:7/8] B, z z z z z2 | %18
[M:3/4] [C,G,][C,G,] [C,G,][C,C] [C,C][C,C] | [C,G,]C, C, .C,3 | %20
 [C,G,C][C,G,C] [C,G,C] [C,C]2 [C,C] | [F,CF]2 [F,C] .[F,C]3 | %22
 [F,CF][F,B,F] [F,CF][F,A,F] [F,B,F][F,CF] |[M:7/8] [G,CE][^G,C_E][=G,C=E] [C,C]3 [C,C] | %24
[M:3/4] [D,C][D,B,] [D,A,][G,,G,] [G,,G,][G,,G,] |[M:5/8] [C,G,]-[C,G,]- [C,G,]3 |] %26
V:3
 x6 | x6 | x6 | x6 | x6 | x6 | x6 | x6 |[M:5/8] B,3 z2 |[M:1/8] x |[M:3/4] x6 | z G, G, .G,3 | x6 | %13
 z2 D .D3 | x6 | x6 | x6 |[M:7/8] z DE F3 z |[M:3/4] x6 | z[K:bass] G, G, .G,3 | x2[K:treble] x4 | %21
 z2 F .F3 | x6 |[M:7/8] x7 |[M:3/4] x6 |[M:5/8] x5 |] %26
V:4
 x6 | x6 | x6 | x6 | x6 | x6 | x6 | x6 |[M:5/8] x5 |[M:1/8] x |[M:3/4] x6 | x6 | x6 | x6 | x6 | %15
 x6 | x6 |[M:7/8] G,-[G,-B,][G,-C] [G,B,]3 z |[M:3/4] x6 | x6 | x6 | x6 | x6 |[M:7/8] x7 | %24
[M:3/4] x6 |[M:5/8] x5 |] %26

